X:1
T:Ere I sleep, for every favour
T:Ere I sleep, for every favour - Evening Song (Thomas Jarman)
T:Be my rock, my guard, my tower; Safely keep, While I sleep, Me with all thy power. Save, O save me from the hidings Of thy face: Let thy grace Cancel my backslidings. So, whene’er in death I slumber, I shall rise, With the wise, Counted in their number. Father, Son and Holy Spirit, Let me know Thee below, Thee above inherit.
C:Thomas Jarman
Z:Tune 705 from p529 of
Z:The Congregational Harmonist,
Z:ed. Thomas Clark, Book 4, No. 30
Z:London: [1837]
%%score [ 1 2 3 4 ]
L:1/8
M:4/4
K:E
V:1 treble nm="Soprano" snm="S."
V:2 treble nm="Alto" snm="A."
V:3 treble-8 transpose=-12 nm="Tenor" snm="T."
V:4 bass nm="Bass" snm="B."
V:1
 E2 (EG) B2 (GE) | (FG)(AF) (G>F) E2 | e2 (dc) (BGcB) | A2 G2 (G2 F2) | B2 (Bd) f2 (dB) | %5
w: Leave me _ not, but _|e- * ver _ love _ me;|Let thy _ peace _ _ _|Be my bliss, _|Till thou _ hence re- *|
w: Ere I _ sleep, for _|ev- * ’ry _ fa- * vour|This day _ shew’d _ _ _|By my God, _|I will _ bless my _|
w: O my _ Lord, what _|shall _ I _ ren- * der|To thy _ name, _ _ _|Still the same, _|Gra- cious, _ good and _|
 (GcB^A B2) =A2 | (GB)(Be) (cA)(GA) | (G2 F2) E4 |] %8
w: move _ _ _ _ me,|till _ thou _ hence _ re- *|move _ me.|
w: Sa- * * * * viour,|I _ will _ bless _ my _|Sa- * viour.|
w: ten- * * * * der,|gra- * cious, _ good _ and _|ten- * der!|
V:2
 B,2 E2 F2 E2 | (DE)(FD) E2 B,2 | G2 (FD) E4 | D2 E2 (E2 D2) | F2 F2 F2 F2 | (G2 F4) F2 | %6
w: Leave me not, but|e- * ver _ love me;|Let thy _ peace|Be my bliss, _|Till thou hence re-|move _ me,|
w: Ere I sleep, for|ev- * ’ry _ fa- vour|This day _ shew’d|By my God, _|I will bless my|Sa- * viour,|
w: O my Lord, what|shall _ I _ ren- der|To thy _ name,|Still the same, _|Gra- cious, good and|ten- * der,|
 (EG) G2 E2 (EF) | (E2 D2) E4 |] %8
w: till _ thou hence re- *|move _ me.|
w: I _ will bless my _|Sa- * viour.|
w: gra- * cious, good and _|ten- * der!|
V:3
 G2 (Gc) B2 B2 | B2 B2 (B>A) G2 | B2 A2 (GBAB) | B2 B2 B4 | B2 (dB) d2 B2 | (Bedc d2) B2 | %6
w: Leave me _ not, but|e- ver love _ me;|Let thy peace _ _ _|Be my bliss,|Till thou _ hence re-|move _ _ _ _ me,|
w: Ere I _ sleep, for|ev- ’ry fa- * vour|This day shew’d _ _ _|By my God,|I will _ bless my|Sa- * * * * viour,|
w: O my _ Lord, what|shall I ren- * der|To thy name, _ _ _|Still the same,|Gra- cious, _ good and|ten- * * * * der,|
 B2 (eB) (Ac)(ec) | (B2 A2) G4 |] %8
w: till thou _ hence _ re- *|move _ me.|
w: I will _ bless _ my _|Sa- * viour.|
w: gra- cious, _ good _ and _|ten- * der!|
V:4
 E,2 C,2"^6" D,2 E,2 |"^53""^64" B,,2"^7" B,,2 E,2 E,2 | E,2"^6""^-5" F,2"^6" (G,E,A,"^6"G,) | %3
w: Leave me not, but|e- ver love me;|Let thy peace _ _ _|
w: Ere I sleep, for|ev- ’ry fa- vour|This day shew’d _ _ _|
w: O my Lord, what|shall I ren- der|To thy name, _ _ _|
"^43" F,2 E,2"^64""^53" B,,4 |"^6" D,2 B,,2 B,2 (B,,"^6"D,) | %5
w: Be my bliss,|Till thou hence re- *|
w: By my God,|I will bless my _|
w: Still the same,|Gra- cious, good and _|
"^6" (E,2"^64""^5#" F,2 B,,2)"^65" D,2 | E,2 E,2 A,,2 (C,"^6"A,,) |"^64""^73" B,,4 E,4 |] %8
w: move _ _ me,|till thou hence re- *|move me.|
w: Sa- * * viour,|I will bless my _|Sa- viour.|
w: ten- * * der,|gra- cious, good and _|ten- der!|

